X: 41364
T: Turquoise Girl
R: hornpipe
M: 4/4
K: Bminor
B,F DE- EG FD|EB GF- FE CD|B,F DE- EG FD|EB AG FE CD|
B,F DE- EG FD|EB GF- FE CD|B,F EF GF EF|1 BF cF dF cF:|2 BF cF d3 z||
BF cF dF BF|(3cde dB ce dz|cF dF eF BF|(3cde dB cd Bz|
BF cF dF BF|(3cde dB ce dz|(3cde dB ce dz|(3cde dB cd Bz||

